img/icon3.svg

<svg width="76" height="63" viewBox="0 0 76 63" fill="none" xmlns="http://www.w3.org/2000/svg">
<rect width="76" height="63" fill="white"/>
<path d="M24.1141 27.288C23.1381 27.288 22.2661 27.168 21.4981 26.928C20.7461 26.672 20.1061 26.328 19.5781 25.896C19.0661 25.464 18.6741 24.952 18.4021 24.36C18.1301 23.768 17.9941 23.12 17.9941 22.416C17.9941 21.328 18.2901 20.448 18.8821 19.776C19.4901 19.088 20.2981 18.608 21.3061 18.336V18.144C20.4741 17.84 19.7941 17.368 19.2661 16.728C18.7541 16.088 18.4981 15.28 18.4981 14.304C18.4981 13.664 18.6181 13.08 18.8581 12.552C19.1141 12.024 19.4821 11.568 19.9621 11.184C20.4421 10.8 21.0261 10.504 21.7141 10.296C22.4181 10.072 23.2181 9.95999 24.1141 9.95999C25.0101 9.95999 25.8021 10.072 26.4901 10.296C27.1941 10.504 27.7861 10.8 28.2661 11.184C28.7461 11.568 29.1061 12.024 29.3461 12.552C29.6021 13.08 29.7301 13.664 29.7301 14.304C29.7301 15.28 29.4661 16.088 28.9381 16.728C28.4261 17.368 27.7541 17.84 26.9221 18.144V18.336C27.9301 18.608 28.7301 19.088 29.3221 19.776C29.9301 20.448 30.2341 21.328 30.2341 22.416C30.2341 23.12 30.0981 23.768 29.8261 24.36C29.5541 24.952 29.1541 25.464 28.6261 25.896C28.1141 26.328 27.4741 26.672 26.7061 26.928C25.9541 27.168 25.0901 27.288 24.1141 27.288ZM24.1141 24.816C25.0261 24.816 25.7221 24.608 26.2021 24.192C26.6981 23.776 26.9461 23.192 26.9461 22.44V21.936C26.9461 21.184 26.6981 20.6 26.2021 20.184C25.7221 19.768 25.0261 19.56 24.1141 19.56C23.2021 19.56 22.4981 19.768 22.0021 20.184C21.5221 20.6 21.2821 21.184 21.2821 21.936V22.44C21.2821 23.192 21.5221 23.776 22.0021 24.192C22.4981 24.608 23.2021 24.816 24.1141 24.816ZM24.1141 17.208C24.9621 17.208 25.6101 17.016 26.0581 16.632C26.5061 16.248 26.7301 15.704 26.7301 15V14.616C26.7301 13.928 26.5061 13.392 26.0581 13.008C25.6101 12.624 24.9621 12.432 24.1141 12.432C23.2661 12.432 22.6181 12.624 22.1701 13.008C21.7221 13.392 21.4981 13.928 21.4981 14.616V15C21.4981 15.704 21.7221 16.248 22.1701 16.632C22.6181 17.016 23.2661 17.208 24.1141 17.208ZM38.5047 27.288C37.4327 27.288 36.5047 27.096 35.7207 26.712C34.9367 26.312 34.2887 25.744 33.7767 25.008C33.2647 24.272 32.8807 23.368 32.6247 22.296C32.3847 21.224 32.2647 20 32.2647 18.624C32.2647 17.264 32.3847 16.048 32.6247 14.976C32.8807 13.888 33.2647 12.976 33.7767 12.24C34.2887 11.504 34.9367 10.944 35.7207 10.56C36.5047 10.16 37.4327 9.95999 38.5047 9.95999C40.6327 9.95999 42.2007 10.72 43.2087 12.24C44.2327 13.76 44.7447 15.888 44.7447 18.624C44.7447 21.36 44.2327 23.488 43.2087 25.008C42.2007 26.528 40.6327 27.288 38.5047 27.288ZM38.5047 24.624C39.5767 24.624 40.3207 24.224 40.7367 23.424C41.1687 22.608 41.3847 21.512 41.3847 20.136V17.112C41.3847 15.736 41.1687 14.648 40.7367 13.848C40.3207 13.032 39.5767 12.624 38.5047 12.624C37.4327 12.624 36.6807 13.032 36.2487 13.848C35.8327 14.648 35.6247 15.736 35.6247 17.112V20.136C35.6247 21.512 35.8327 22.608 36.2487 23.424C36.6807 24.224 37.4327 24.624 38.5047 24.624ZM52.8953 27.288C51.8233 27.288 50.8953 27.096 50.1113 26.712C49.3273 26.312 48.6793 25.744 48.1673 25.008C47.6553 24.272 47.2713 23.368 47.0153 22.296C46.7753 21.224 46.6553 20 46.6553 18.624C46.6553 17.264 46.7753 16.048 47.0153 14.976C47.2713 13.888 47.6553 12.976 48.1673 12.24C48.6793 11.504 49.3273 10.944 50.1113 10.56C50.8953 10.16 51.8233 9.95999 52.8953 9.95999C55.0233 9.95999 56.5913 10.72 57.5993 12.24C58.6233 13.76 59.1353 15.888 59.1353 18.624C59.1353 21.36 58.6233 23.488 57.5993 25.008C56.5913 26.528 55.0233 27.288 52.8953 27.288ZM52.8953 24.624C53.9673 24.624 54.7113 24.224 55.1273 23.424C55.5593 22.608 55.7753 21.512 55.7753 20.136V17.112C55.7753 15.736 55.5593 14.648 55.1273 13.848C54.7113 13.032 53.9673 12.624 52.8953 12.624C51.8233 12.624 51.0713 13.032 50.6393 13.848C50.2233 14.648 50.0153 15.736 50.0153 17.112V20.136C50.0153 21.512 50.2233 22.608 50.6393 23.424C51.0713 24.224 51.8233 24.624 52.8953 24.624ZM17.2604 39.472H20.7884L24.1004 44.992H24.1964L27.4604 39.472H30.8924V52H27.9164V43.264H27.8204L26.9564 44.896L24.0764 49.648L21.1964 44.896L20.3324 43.264H20.2364V52H17.2604V39.472ZM32.9761 49.552H34.6081C34.7681 49.312 34.9121 49.024 35.0401 48.688C35.1841 48.352 35.3041 47.944 35.4001 47.464C35.4961 46.968 35.5681 46.384 35.6161 45.712C35.6801 45.024 35.7121 44.224 35.7121 43.312V39.472H45.2401V52H42.1681V41.92H38.6401V43.456C38.6401 44.592 38.6001 45.584 38.5201 46.432C38.4401 47.264 38.3201 47.984 38.1601 48.592C38.0161 49.2 37.8321 49.712 37.6081 50.128C37.4001 50.528 37.1681 50.856 36.9121 51.112C36.5441 51.48 36.1281 51.736 35.6641 51.88C35.2001 52.024 34.6321 52.096 33.9601 52.096H32.9761V49.552ZM48.7604 39.472H51.8324V44.392H56.6564V39.472H59.7284V52H56.6564V46.84H51.8324V52H48.7604V39.472Z" fill="#000105"/>
<path d="M75 1H1V62H75V1Z" stroke="black" stroke-width="2"/>
</svg>

<svg width="76" height="63" fill="none" xmlns="http://www.w3.org/2000/svg"><path fill="#fff" d="M0 0h76v63H0z"/><path d="M24.114 27.288c-.976 0-1.848-.12-2.616-.36-.752-.256-1.392-.6-1.92-1.032a4.388 4.388 0 01-1.176-1.536 4.6 4.6 0 01-.408-1.944c0-1.088.296-1.968.888-2.64.608-.688 1.416-1.168 2.424-1.44v-.192c-.832-.304-1.512-.776-2.04-1.416-.512-.64-.768-1.448-.768-2.424 0-.64.12-1.224.36-1.752a3.94 3.94 0 011.104-1.368c.48-.384 1.064-.68 1.752-.888.704-.224 1.504-.336 2.4-.336.896 0 1.688.112 2.376.336.704.208 1.296.504 1.776.888s.84.84 1.08 1.368c.256.528.384 1.112.384 1.752 0 .976-.264 1.784-.792 2.424-.512.64-1.184 1.112-2.016 1.416v.192c1.008.272 1.808.752 2.4 1.44.608.672.912 1.552.912 2.64a4.6 4.6 0 01-.408 1.944 4.274 4.274 0 01-1.2 1.536c-.512.432-1.152.776-1.92 1.032-.752.24-1.616.36-2.592.36zm0-2.472c.912 0 1.608-.208 2.088-.624.496-.416.744-1 .744-1.752v-.504c0-.752-.248-1.336-.744-1.752-.48-.416-1.176-.624-2.088-.624-.912 0-1.616.208-2.112.624-.48.416-.72 1-.72 1.752v.504c0 .752.24 1.336.72 1.752.496.416 1.2.624 2.112.624zm0-7.608c.848 0 1.496-.192 1.944-.576.448-.384.672-.928.672-1.632v-.384c0-.688-.224-1.224-.672-1.608-.448-.384-1.096-.576-1.944-.576-.848 0-1.496.192-1.944.576-.448.384-.672.92-.672 1.608V15c0 .704.224 1.248.672 1.632.448.384 1.096.576 1.944.576zm14.39 10.08c-1.071 0-2-.192-2.783-.576a5.238 5.238 0 01-1.944-1.704c-.512-.736-.896-1.64-1.152-2.712-.24-1.072-.36-2.296-.36-3.672 0-1.36.12-2.576.36-3.648.256-1.088.64-2 1.152-2.736a5.037 5.037 0 011.944-1.68c.784-.4 1.712-.6 2.784-.6 2.128 0 3.696.76 4.704 2.28 1.024 1.52 1.536 3.648 1.536 6.384s-.512 4.864-1.536 6.384c-1.008 1.52-2.576 2.28-4.704 2.28zm0-2.664c1.073 0 1.817-.4 2.233-1.2.432-.816.648-1.912.648-3.288v-3.024c0-1.376-.216-2.464-.648-3.264-.416-.816-1.16-1.224-2.232-1.224-1.072 0-1.824.408-2.256 1.224-.416.8-.624 1.888-.624 3.264v3.024c0 1.376.208 2.472.624 3.288.432.8 1.184 1.2 2.256 1.2zm14.391 2.664c-1.072 0-2-.192-2.784-.576a5.238 5.238 0 01-1.944-1.704c-.512-.736-.896-1.64-1.152-2.712-.24-1.072-.36-2.296-.36-3.672 0-1.36.12-2.576.36-3.648.256-1.088.64-2 1.152-2.736a5.037 5.037 0 011.944-1.68c.784-.4 1.712-.6 2.784-.6 2.128 0 3.696.76 4.704 2.28 1.024 1.52 1.536 3.648 1.536 6.384s-.512 4.864-1.536 6.384c-1.008 1.52-2.576 2.28-4.704 2.28zm0-2.664c1.072 0 1.816-.4 2.232-1.2.432-.816.648-1.912.648-3.288v-3.024c0-1.376-.216-2.464-.648-3.264-.416-.816-1.16-1.224-2.232-1.224-1.072 0-1.824.408-2.256 1.224-.416.8-.624 1.888-.624 3.264v3.024c0 1.376.208 2.472.624 3.288.432.8 1.184 1.2 2.256 1.2zM17.26 39.472h3.528l3.312 5.52h.096l3.264-5.52h3.432V52h-2.976v-8.736h-.096l-.864 1.632-2.88 4.752-2.88-4.752-.864-1.632h-.096V52H17.26V39.472zm15.716 10.08h1.632c.16-.24.304-.528.432-.864.144-.336.264-.744.36-1.224.096-.496.168-1.08.216-1.752.064-.688.096-1.488.096-2.4v-3.84h9.528V52h-3.072V41.92H38.64v1.536c0 1.136-.04 2.128-.12 2.976-.08.832-.2 1.552-.36 2.16-.144.608-.328 1.12-.552 1.536-.208.4-.44.728-.696.984a3.013 3.013 0 01-1.248.768c-.464.144-1.032.216-1.704.216h-.984v-2.544zm15.784-10.08h3.072v4.92h4.824v-4.92h3.072V52h-3.072v-5.16h-4.824V52H48.76V39.472z" fill="#000105"/><path d="M75 1H1v61h74V1z" stroke="#000" stroke-width="2"/></svg>
